X: 27633
T: Mooncoin, The
R: jig
M: 6/8
K: Amixolydian
|cBA {c}AEA|A z1 A Bcd|cBA efg|dBG B z1 B|
cBA ~A3|~A3 Bcd|e z2 gfe|dBG Bcd|
cBA {G}A z1 E|AEA Bcd|cBA e z1 g|dBG Bcd|
cBA EAE|AEA B z1 A|G(B/c/d) gfe|d z1 G Bcd|
|:(B/c/d)e {d}e z1 g|(f/g/a)f ged|(B/c/d)e {d}e z1 g|(f/g/a)A Bcd|
(B/c/d)e {d}e z1 (f/g/)|{b}afd {c'}bge|{b}afd {a}gec|dBG Bcd:|
|:cBA A z1 f|ecA Bcd|cBA gfe|dBG B z1d|
cBA Aa{g}a|Ag{f}g Af{e}f|{d}e2 z1 efg|dBG Bcd:|

